X: 11
T:Max
R:march
B:RSCDS 18-19(II)
Z: 1997 by John Chambers <jc@eddie.mit.edu> http://eddie.mit.edu/~jc/music
Z:bc/
M:4/4
L:1/8
K:A
|: c2 \
| A3E C2E2 | A3E C2c2 | A3E FEDC | c2B4 c2 \
| A3E C2E2 | A3F E2C2 | D3F E2G2 | A6 :|
|: E2 \
| A3A c2e2 | d2B2 G2B2 | c2A2 e2c2 | c2B2- B2G2 \
| A3F E2C2 | D3E F2f2 | e3d c2B2 | c2A4 :|
